X:423
T: FRISCH LUSTIG UND FROEHLICH
N: E1614A
O: Europa, Mitteleuropa, Deutschland, Hessen, Nassau
R: Staende -, Handwerker -, Gesellen - Lied, Wanderschaft
M: 3/4
L: 1/8
K: Eb
E2 | E2B,2G2 | G2E2
B2 | B2cBAG | G2F2
E2 | E2B,2G2 | G2E2
B2 | B2cBAG | G2F2
BB | cde2dc | B2G2
B2 | cde2dc | B4
B2 | Bgg2g2 | gff2
f2 | fga2d2 | e4

@@@ Tune index: 5107
